Modules/BetterCms.Module.Root/Scss/assets/icons/manager-region.svg

<svg xmlns="http://www.w3.org/2000/svg" xmlns:xlink="http://www.w3.org/1999/xlink" preserveAspectRatio="xMidYMid" width="16" height="16" viewBox="0 0 16 16">
  <defs>
    <style>
      .cls-1 {
        fill: #0383df;
        fill-rule: evenodd;
      }
    </style>
  </defs>
  <path d="M8.000,16.000 C3.582,16.000 0.000,12.418 0.000,8.000 C0.000,3.582 3.582,0.000 8.000,0.000 C12.418,0.000 16.000,3.582 16.000,8.000 C16.000,12.418 12.418,16.000 8.000,16.000 ZM4.000,10.000 L5.000,10.000 L5.000,8.000 L4.000,8.000 L4.000,10.000 ZM6.000,4.000 L4.000,4.000 L4.000,5.000 L4.000,7.000 L5.000,7.000 L5.000,5.000 L6.000,5.000 L6.000,4.000 ZM6.000,11.000 L4.000,11.000 L4.000,12.000 L6.000,12.000 L6.000,11.000 ZM9.000,4.000 L7.000,4.000 L7.000,5.000 L9.000,5.000 L9.000,4.000 ZM9.000,11.000 L7.000,11.000 L7.000,12.000 L9.000,12.000 L9.000,11.000 ZM12.000,4.000 L10.000,4.000 L10.000,5.000 L12.000,5.000 L12.000,4.000 ZM12.000,6.000 L11.000,6.000 L11.000,8.000 L12.000,8.000 L12.000,6.000 ZM12.000,11.000 L12.000,9.000 L11.000,9.000 L11.000,11.000 L10.000,11.000 L10.000,12.000 L12.000,12.000 L12.000,11.000 Z" class="cls-1"/>
</svg>

<svg xmlns="http://www.w3.org/2000/svg" width="16" height="16" viewBox="0 0 16 16"><path d="m8 16c-4.418 0-8-3.582-8-8 0-4.418 3.582-8 8-8 4.418 0 8 3.582 8 8 0 4.418-3.582 8-8 8m-4-6h1v-2h-1v2m2-6h-2v1 2h1v-2h1v-1m0 7h-2v1h2v-1m3-7h-2v1h2v-1m0 7h-2v1h2v-1m3-7h-2v1h2v-1m0 2h-1v2h1v-2m0 5v-2h-1v2h-1v1h2v-1" fill="#0383df" fill-rule="evenodd"/></svg>
